**kern	**kern
*staff1	*staff1
*head[head1]	*head[head1]
*solo[solo1]	*solo[solo1]
*solo[solo2]	*solo[solo2]
=1-	=1-
*clefG2	*clefG2
*k[]	*k[]
*C:	*C:
*M4/4	*M4/4
*>head1	*>head1
4r	1C:maj
{24b\LL	.
24cc\	.
24b\JJ	.
8a/	.
8g/L	.
8f/J	.
20e/LL	.
20c/	.
20g-/	.
20c/	.
[20f/JJ	.
=2	=2
2.f/_	1F:dom
8f/L]	.
16e-/L	.
16c/JJ	.
=3	=3
[4e/	1C:dom
8e/L]	.
16f/L	.
16e/JJ	.
12c/L	.
12d/	.
[12B-/J	.
4B-/]}	.
=4	=4
2r	2G:min
2r	2C:dom
=5	=5
8r	1F:maj
{[8ee\	.
24ee\LL]	.
24ff\	.
24ee\JJ	.
8dd\	.
8cc\L	.
8b-\J	.
24a/LL	.
24b-/	.
24a/JJ	.
8f/	.
=6	=6
12a-/L	1F:min
12f/	.
[12g/J	.
2g/_	.
12g/L]	.
12f/	.
12c/J	.
=7	=7
4.e/	1E:min
[8dd\	.
2dd\]}	.
=8	=8
2r	2E:min
8r	2A:dom
{8d\L	.
8dd\	.
[8cc\J	.
=9	=9
8cc\]	1D:min
4a/	.
8g/	.
8f/L	.
8A/	.
8c/	.
8e/J	.
=10	=10
8d/L	1G:dom
8c/J	.
12B/L	.
12d/	.
12f/J	.
4a-/	.
8g/L	.
8f/J	.
=11	=11
[4e/	1A:maj
8e/L]	.
16c/L	.
16A/JJ	.
8c/L	.
[8G/J	.
4G/]}	.
=12	=12
2r	2D:min
2r	2G:dom
=13	=13
*>solo1	*>solo1
{16r	1C:dom
16c/LL	.
16f#/	.
16g/JJ	.
16cc/LL	.
16b-/	.
16a/	.
16g/JJ	.
16fn/LL	.
16e/	.
16d/	.
16d-/JJ	.
16c/LL	.
16A/JJ	.
24B-/LL	.
24c/	.
24B-/JJ	.
=14||	=14||
16A/LL	1F:dom
16c/	.
16d/	.
16c/JJ	.
16g/LL	.
16f/	.
16c/	.
16A/JJ	.
4e-/	.
4r	.
=15	=15
8r	1C:dom
{16B/LL	.
16c/JJ	.
16d/LL	.
16c/	.
16B/	.
16c/JJ	.
16d#/LL	.
16e/	.
16f/	.
16f#/JJ	.
16g/LL	.
16a/	.
16b-/	.
16cc/JJ	.
=16	=16
16dd\LL	2G:min
16ff\	.
16ee\	.
16cc\JJ	.
16cc#\LL	.
16dd\	.
16b-\	.
16g\JJ	.
16ccn/LL2C:dom	.
16a/JJ	.
24b-\LL	.
24cc\	.
24b-\JJ	.
16a-/LL	.
16e-/	.
16d-/	.
16B/JJ	.
=17	=17
16c/LL	1F:dom
16A/JJ	.
24B-/LL	.
24d/	.
24f/JJ	.
16g/LL	.
16f/	.
16c/	.
16B-/JJ	.
16d/LL	.
16e-/	.
16c/	.
16A/JJ	.
16d/LK	.
8.F/J}	.
=18	=18
2r	2F:dom
2r	2G-:o7
=19	=19
8r	1C:maj
*>solo1	*>solo1
{8c/L	.
8g/	.
8dd/J	.
24b\LL	.
24cc\	.
24b\JJ	.
8g/L	.
8e/	.
8B/J	.
=20	=20
2B-/}	2E:min
2r	2A-:dom:9-
=21	=21
8r	1D:min
{8G#/	.
16A/LL	.
16c/	.
16e/	.
16g/JJ	.
8f/L	.
8c/J	.
24A/LL	.
24B-/	.
24A/JJ	.
8F/	.
=22	=22
16A-/LL	1G:dom
16f/	.
16e/	.
16d/JJ	.
[4B/	.
4B/]	.
8d/L	.
8B/J	.
=23	=23
16c/LL	2E:min
16a-/	.
16f/	.
16f#/JJ	.
16g/LK	.
[8.e/J	.
4e/]}	2E-:dom
4r	.
=24	=24
2r	2A-:maj
2r	2G:dom
=25	=25
8r	1C:dom
*>solo2	*>solo2
{16g/LL	.
16a/JJ	.
16cc\LL	.
16dd\	.
16dd#\	.
16ee\JJ	.
16ff\LL	.
16cc\J	.
[8ee\	.
8ee\]	.
16ff\L	.
16cc\JJ	.
=26||	=26||
8ee\L	2F:dom
8ff\J	.
4r	.
8r	2G-:o7
24cc\LL	.
24cc\	.
24cc\JJ	.
8gg-\L	.
8ff\J	.
=27	=27
16ee-\LL2C:dom	.
16cc\J	.
[8een\	.
8ee\]	.
16cc\L	.
16dd\JJ	.
2b-\}	2G-:dom
=28	=28
1r	4F:dom
1r	4E:dom
4r	4E-:dom
8r	4G-:dom
{24cc\LL	.
24cc\	.
24cc\JJ	.
=29	=29
4ee-\	1F:dom
24ee-\LL	.
24gg\	.
24ee-\JJ	.
8cc\	.
8ee-/L	.
[8f/J	.
4f/]}	.
=30	=30
4r	2F:dom
8r	.
{24ee-\LL	.
24dd\	.
24cc\JJ	.
16b-/LL	2G-:o7
16a/	.
16a-/	.
16f/JJ	.
16e-/LL	.
16B-/	.
16A-/	.
16G-/JJ	.
=31	=31
16G/LL	1C:maj
16f/	.
16d/	.
16e-/JJ	.
16en/LL	.
16G/	.
16A/	.
16B/JJ	.
16d/LL	.
16c/	.
16B/	.
16c/JJ	.
16e/LL	.
16g/	.
16b/	.
16cc/JJ	.
=32	=32
16dd\LL	1E-:min
16b\	.
16cc#\	.
16b-\JJ	.
4f#/	.
8r	2D:min
16cc#\LL	.
16b-\JJ	.
16a/LL	.
16f#/	.
16d/	.
16A/JJ	.
=33	=33
16c#/LL	1D:min
16a/JJ	.
24f/LL	.
24c#/	.
24A/JJ	.
16cn/LL	.
16A/JJ	.
24B/LL	.
24d/	.
24f/JJ	.
16a/LL	.
16f/	.
16d/	.
16B/JJ	.
16g/LL	.
16f/JJ}	.
8r	.
=34	=34
4r	1G:dom
{24ee-\LL	.
24dd\	.
24cc\JJ	.
16b-/LL	.
16a/JJ	.
16a-/LL	.
16f/	.
16e-/	.
16B/JJ	.
16A-/LL	.
16G-/	.
16Gn/	.
16f/JJ	.
=35	=35
16d/LL	2C:dom
16d#/	.
16e/	.
16G/JJ	.
16A/LL	.
16B/	.
16c/	.
16B-/JJ	.
16A/LL	2A:dom
16c/J	.
8e/J	.
8r	.
8b\	.
=36	=36
16cc\LL	2D:min
16b\J	.
[8cc\J	.
16cc\LL]	.
16b\	.
16cc\	.
16b\JJ	2G:dom
8cc\L	.
16b\L	.
16b-\JJ	.
16a/LL	.
16f/	.
16d/	.
16G/JJ	.
=37	=37
8g/L	2C:dom
[8e/J	.
2e/]}	.
4r	.
==	==
*-	*-
